src/main/resources/icons/fileIcon.svg

<svg id="svg" xmlns="http://www.w3.org/2000/svg" xmlns:xlink="http://www.w3.org/1999/xlink" width="16" height="16"
     viewBox="0, 0, 480,480">
    <g>
        <circle cx="240" cy="240" r="200"/>
        <path id="letter" fill-opacity="0.7" stroke="#54bb54" fill="#54bb54" stroke-width="1"
              d="M 166,109
             h 30
             c 30,0 60,10 78,60
             l 77,224
             h -54
             l -40,-118
             l -1,-1
             l -1,1
             l -46,118
             h -54
             l  75,-197
             l  -9,-26
             c  -6,-15 -20,-19 -28,-19
             l -27,-1
             Z
             "/>
        <circle id="letter-dot" cx="137" cy="127" r="31" fill="#f8f8f8"/>
    </g>
</svg>

<svg id="svg" xmlns="http://www.w3.org/2000/svg" xmlns:xlink="http://www.w3.org/1999/xlink" width="16" height="16"
     viewBox="0, 0, 480,480">
    <g>
        <circle cx="240" cy="240" r="200"/>
        <path id="letter" fill-opacity="0.7" stroke="#54bb54" fill="#54bb54" stroke-width="1"
              d="M 166,109
             h 30
             c 30,0 60,10 78,60
             l 77,224
             H 297
             L 257,275
             L 256,274
             L 255,275
             L 209,393
             H 155
             L 230,196
             L 221,170
             c -6,-15 -20,-19 -28,-19
             L 166,150
             Z
             "/>
        <circle id="letter-dot" cx="137" cy="127" r="31" fill="#f8f8f8"/>
    </g>
</svg>
